!!!OTL: WIE DIE BLUEMLEIN DRAUSSEN ZITTERN
!!!ARE: Europa, Mitteleuropa, Deutschland; France, Elsass
!!!SCT: E0779A
!!!YEM: Copyright 1995, estate of Helmut Schaffrath.
**kern
*ICvox
*Ivox
!! Mixed meters:  3/4; 4/4
*M3/4
*k[]
*C:
{8.G
16A
=1
4G
4E
8.c
16d
=2
4c
4B}
{8G
8G
=3
4.B
8A
8G
8F
=4
2E}
{8.G
16A
=5
4G
4E
8.c
16d
=6
4c
4B}
{8G
8G
=7
4.B
8A
8G
8F
=8
2E
8r}
{8G
=9
8G
8e
4.c
8B
=10
8A
8f
4.d}
{8c
=11
*M4/4
8.B
16A
8G
8G
8G
8G
8A
8B
=12
*M3/4
4c
4.r}
{8G
=13
8G
8e
4.c
8B
=14
8A
8f
4.d}
{8c
=15
8.B
16A
8G
8B
8.e
16d
=16
2c}
==
!!!AGN: Abschieds - Lied, Liebe
!!!ONB: ESAC (Essen Associative Code) Database: ERK2
!!!AMT: irregular
!!!AIN: vox
!!!EED: Helmut Schaffrath
!!!EEV: 1.0
*-
